; generated by Slic3r 1.2.9 on 2015-08-26 at 17:04:41

; external perimeters extrusion width = 0.40mm
; perimeters extrusion width = 0.67mm
; infill extrusion width = 0.67mm
; solid infill extrusion width = 0.67mm
; top infill extrusion width = 0.67mm
; support material extrusion width = 0.40mm

M190 S100 ; set bed temperature
M104 S250 ; set temperature
M906 X950 Y1000 Z600 E350 ; Set motor currents
G28 ; home all axes

M109 S250 ; wait for temperature to be reached
G21 ; set units to millimeters
G90 ; use absolute coordinates
M82 ; use absolute distances for extrusion
G92 E0
G1 E-1.50000 F2100.00000
G92 E0
G1 Z0.200 F6000.000
G1 X15.393 Y10.135 F6000.000
G1 E1.60000 F2100.00000
G1 X16.924 Y7.969 E1.72467 F1620.000
G1 X19.027 Y6.355 E1.84934
G1 X21.515 Y5.438 E1.97402
G1 X23.208 Y5.257 E2.05410
G1 X65.174 Y5.245 E4.02736
G1 X140.010 Y5.500 E7.54617 F1620.000
G1 X142.630 Y5.907 E7.67085
G1 X144.223 Y6.585 E7.75228
G1 X153.358 Y11.585 E8.24192
G1 X155.466 Y13.193 E8.36659
G1 X157.430 Y16.344 E8.54118
G1 X157.700 Y17.128 E8.58015
G1 X169.314 Y55.266 E10.45474
G1 X169.649 Y56.917 E10.53393
G1 X169.759 Y57.956 E10.58309
G1 X169.759 Y59.804 E10.66998
G1 X169.649 Y60.844 E10.71914
G1 X169.265 Y62.651 E10.80599
G1 X168.942 Y63.645 E10.85514
G1 X168.191 Y65.332 E10.94200
G1 X167.668 Y66.238 E10.99115
G1 X166.582 Y67.733 E11.07803
G1 X165.564 Y68.845 E11.14894
G1 X165.039 Y69.330 E11.18254
G1 X142.493 Y88.495 E12.57394
G1 X141.387 Y89.297 E12.63819
G1 X140.878 Y89.609 E12.66624
G1 X139.643 Y90.238 E12.73143
G1 X139.092 Y90.466 E12.75946
G1 X137.773 Y90.895 E12.82466
G1 X137.193 Y91.034 E12.85270
G1 X135.823 Y91.251 E12.91792
G1 X135.229 Y91.298 E12.94596
G1 X133.842 Y91.298 E13.01116
G1 X133.248 Y91.251 E13.03920
G1 X132.343 Y91.133 E13.08211
G1 X9.293 Y68.507 E18.96497
G1 X6.786 Y67.642 E19.08964
G1 X4.649 Y66.072 E19.21432
G1 X3.074 Y63.939 E19.33899
G1 X2.367 Y62.150 E19.42943
G1 X2.102 Y61.182 E19.47665
G1 X1.788 Y58.861 E19.58677
G1 X1.788 Y54.296 E19.80142
G1 X2.186 Y51.729 E19.92353
G1 X14.436 Y12.307 E21.86462
G1 X14.975 Y10.970 E21.93242
G1 X15.366 Y10.188 E21.97351
G1 X15.768 Y10.322 F6000.000
G1 X17.269 Y8.215 E22.09517 F1620.000
G1 X19.339 Y6.663 E22.21684
G1 X21.783 Y5.813 E22.33850
G1 X23.212 Y5.676 E22.40602
G1 X65.173 Y5.664 E24.37903
G1 X140.008 Y5.919 E27.89784 F1620.000
G1 X142.564 Y6.325 E28.01950
G1 X144.022 Y6.953 E28.09415
G1 X153.157 Y11.953 E28.58380
G1 X155.208 Y13.529 E28.70546
G1 X157.036 Y16.486 E28.86890
G1 X157.299 Y17.250 E28.90689
G1 X168.914 Y55.388 E30.78148
G1 X169.233 Y56.960 E30.85691
G1 X169.342 Y58.000 E30.90607
G1 X169.342 Y59.760 E30.98884
G1 X169.233 Y60.800 E31.03800
G1 X168.867 Y62.521 E31.12074
G1 X168.544 Y63.515 E31.16989
G1 X167.828 Y65.123 E31.25263
G1 X167.306 Y66.028 E31.30178
G1 X166.271 Y67.452 E31.38455
G1 X165.268 Y68.549 E31.45442
G1 X164.768 Y69.010 E31.48643
G1 X142.222 Y88.176 E32.87783
G1 X141.168 Y88.940 E32.93903
G1 X140.659 Y89.252 E32.96708
G1 X139.482 Y89.851 E33.02918
G1 X138.931 Y90.079 E33.05722
G1 X137.675 Y90.488 E33.11933
G1 X137.095 Y90.627 E33.14737
G1 X135.790 Y90.833 E33.20949
G1 X135.196 Y90.880 E33.23753
G1 X133.875 Y90.880 E33.29964
G1 X133.280 Y90.833 E33.32768
G1 X132.418 Y90.721 E33.36856
G1 X9.368 Y68.095 E39.25142
G1 X6.926 Y67.241 E39.37308
G1 X4.858 Y65.686 E39.49475
G1 X3.359 Y63.577 E39.61641
G1 X2.771 Y62.039 E39.69381
G1 X2.506 Y61.071 E39.74103
G1 X2.207 Y58.860 E39.84594
G1 X2.207 Y54.299 E40.06042
G1 X2.586 Y51.854 E40.17675
G1 X14.836 Y12.431 E42.11784
G1 X15.349 Y11.157 E42.18242
G1 X15.741 Y10.376 E42.22351
G1 E40.72351 F2100.00000
G92 E0
G1 X29.456 Y49.925 F6000.000
G1 E1.60000 F2100.00000
G1 X29.941 Y49.874 E1.62291 F972.000
G1 X30.425 Y49.925 E1.64581
G1 X30.889 Y50.076 E1.66872
G1 X31.311 Y50.319 E1.69163
G1 X31.673 Y50.645 E1.71454
G1 X31.959 Y51.040 E1.73745
G1 X32.157 Y51.485 E1.76035
G1 X32.259 Y51.961 E1.78326
G1 X32.259 Y52.448 E1.80617
G1 X32.157 Y52.925 E1.82908
G1 X31.959 Y53.370 E1.85198
G1 X31.673 Y53.764 E1.87489
G1 X31.311 Y54.090 E1.89780
G1 X30.889 Y54.334 E1.92071
G1 X30.425 Y54.484 E1.94362
G1 X29.941 Y54.535 E1.96652
G1 X29.456 Y54.484 E1.98943
G1 X28.993 Y54.334 E2.01234
G1 X28.571 Y54.090 E2.03525
G1 X28.209 Y53.764 E2.05816
G1 X27.923 Y53.370 E2.08107
G1 X27.725 Y52.925 E2.10397
G1 X27.623 Y52.448 E2.12688
G1 X27.623 Y51.961 E2.14979
G1 X27.725 Y51.485 E2.17270
G1 X27.923 Y51.040 E2.19560
G1 X28.209 Y50.645 E2.21851
G1 X28.571 Y50.319 E2.24142
G1 X28.993 Y50.076 E2.26433
G1 X29.399 Y49.944 E2.28442
G1 X29.535 Y50.296 F6000.000
G1 X29.941 Y50.254 E2.29978 F972.000
G1 X30.347 Y50.296 E2.31515
G1 X30.734 Y50.422 E2.33052
G1 X31.088 Y50.626 E2.34588
G1 X31.391 Y50.899 E2.36125
G1 X31.631 Y51.229 E2.37662
G1 X31.796 Y51.602 E2.39198
G1 X31.881 Y52.001 E2.40735
G1 X31.881 Y52.409 E2.42272
G1 X31.796 Y52.808 E2.43809
G1 X31.631 Y53.180 E2.45345
G1 X31.391 Y53.510 E2.46882
G1 X31.088 Y53.783 E2.48419
G1 X30.734 Y53.987 E2.49955
G1 X30.346 Y54.113 E2.51492
G1 X29.941 Y54.156 E2.53029
G1 X29.535 Y54.113 E2.54565
G1 X29.147 Y53.987 E2.56102
G1 X28.794 Y53.783 E2.57639
G1 X28.491 Y53.510 E2.59175
G1 X28.251 Y53.180 E2.60712
G1 X28.085 Y52.808 E2.62249
G1 X28.000 Y52.409 E2.63786
G1 X28.000 Y52.001 E2.65322
G1 X28.085 Y51.602 E2.66859
G1 X28.251 Y51.229 E2.68396
G1 X28.491 Y50.899 E2.69932
G1 X28.794 Y50.626 E2.71469
G1 X29.147 Y50.422 E2.73006
G1 X29.478 Y50.315 E2.74316
G1 X29.672 Y49.920 F6000.000
G1 X35.086 Y45.271 F6000.000
G1 X34.094 Y43.905 E2.82252 F1620.000
G1 X33.281 Y42.427 E2.90187
G1 X32.660 Y40.857 E2.98122
G1 X32.240 Y39.223 E3.06057
G1 X32.029 Y37.549 E3.13993
G1 X32.029 Y35.861 E3.21928
G1 X32.240 Y34.187 E3.29863
G1 X32.661 Y32.551 E3.37805
G1 X33.315 Y30.922 E3.46060
G1 X34.094 Y29.504 E3.53666
G1 X35.086 Y28.139 E3.61601
G1 X36.242 Y26.909 E3.69537
G1 X37.542 Y25.833 E3.77472
G1 X38.967 Y24.929 E3.85407
G1 X40.494 Y24.210 E3.93342
G1 X42.099 Y23.689 E4.01277
G1 X43.757 Y23.372 E4.09212
G1 X45.435 Y23.267 E4.17119 F1620.000
G1 X47.125 Y23.372 E4.25082
G1 X48.783 Y23.689 E4.33018
G1 X50.388 Y24.210 E4.40953
G1 X51.915 Y24.929 E4.48888
G1 X53.330 Y25.827 E4.56771
G1 X54.640 Y26.908 E4.64757
G1 X55.795 Y28.139 E4.72693
G1 X56.787 Y29.504 E4.80629
G1 X57.600 Y30.983 E4.88564
G1 X58.222 Y32.552 E4.96499
G1 X58.641 Y34.187 E5.04434
G1 X58.853 Y35.861 E5.12370
G1 X58.853 Y37.549 E5.20305
G1 X58.641 Y39.223 E5.28240
G1 X58.222 Y40.857 E5.36175
G1 X57.600 Y42.427 E5.44110
G1 X56.787 Y43.905 E5.52046
G1 X55.795 Y45.271 E5.59981
G1 X54.644 Y46.496 E5.67886
G1 X53.340 Y47.577 E5.75850
G1 X51.915 Y48.481 E5.83786
G1 X50.389 Y49.199 E5.91717
G1 X48.820 Y49.714 E5.99479
G1 X47.125 Y50.037 E6.07593
G1 X45.441 Y50.143 E6.15528
G1 X43.757 Y50.037 E6.23464
G1 X42.110 Y49.723 E6.31346
G1 X40.494 Y49.200 E6.39332
G1 X38.967 Y48.481 E6.47269
G1 X37.551 Y47.583 E6.55151
G1 X36.242 Y46.501 E6.63138
G1 X35.127 Y45.314 E6.70792
G1 X35.378 Y45.030 F6000.000
G1 X34.414 Y43.703 E6.76971 F810.000
G1 X33.623 Y42.266 E6.83150
G1 X33.020 Y40.741 E6.89329
G1 X32.612 Y39.152 E6.95508
G1 X32.406 Y37.525 E7.01687
G1 X32.406 Y35.885 E7.07866
G1 X32.612 Y34.257 E7.14046
G1 X33.020 Y32.668 E7.20227
G1 X33.657 Y31.083 E7.26662
G1 X34.414 Y29.707 E7.32581
G1 X35.378 Y28.380 E7.38760
G1 X36.500 Y27.184 E7.44939
G1 X37.764 Y26.139 E7.51118
G1 X39.149 Y25.260 E7.57297
G1 X40.633 Y24.562 E7.63476
G1 X42.193 Y24.055 E7.69656
G1 X43.804 Y23.747 E7.75835
G1 X45.435 Y23.645 E7.81991 F810.000
G1 X47.078 Y23.747 E7.88193
G1 X48.689 Y24.055 E7.94372
G1 X50.249 Y24.562 E8.00551
G1 X51.733 Y25.260 E8.06730
G1 X53.108 Y26.133 E8.12867
G1 X54.381 Y27.184 E8.19088
G1 X55.504 Y28.380 E8.25267
G1 X56.468 Y29.707 E8.31446
G1 X57.258 Y31.144 E8.37625
G1 X57.862 Y32.669 E8.43804
G1 X58.270 Y34.257 E8.49983
G1 X58.476 Y35.885 E8.56163
G1 X58.476 Y37.525 E8.62342
G1 X58.270 Y39.152 E8.68521
G1 X57.862 Y40.741 E8.74700
G1 X57.258 Y42.266 E8.80879
G1 X56.468 Y43.703 E8.87058
G1 X55.504 Y45.030 E8.93237
G1 X54.386 Y46.221 E8.99393
G1 X53.118 Y47.271 E9.05595
G1 X51.733 Y48.150 E9.11774
G1 X50.249 Y48.848 E9.17952
G1 X48.726 Y49.348 E9.23993
G1 X47.078 Y49.662 E9.30313
G1 X45.441 Y49.765 E9.36492
G1 X43.804 Y49.662 E9.42671
G1 X42.204 Y49.357 E9.48808
G1 X40.633 Y48.848 E9.55029
G1 X39.149 Y48.150 E9.61208
G1 X37.774 Y47.277 E9.67345
G1 X36.500 Y46.225 E9.73566
G1 X35.419 Y45.073 E9.79519
G1 X34.982 Y45.088 F6000.000
G1 E8.29519 F2100.00000
G92 E0
G1 X30.661 Y23.421 F6000.000
G1 E1.60000 F2100.00000
G1 X30.184 Y23.522 E1.62291 F972.000
G1 X29.697 Y23.522 E1.64582
G1 X29.221 Y23.421 E1.66873
G1 X28.776 Y23.223 E1.69163
G1 X28.382 Y22.937 E1.71454
G1 X28.056 Y22.575 E1.73745
G1 X27.812 Y22.153 E1.76036
G1 X27.661 Y21.689 E1.78327
G1 X27.610 Y21.205 E1.80617
G1 X27.661 Y20.720 E1.82908
G1 X27.812 Y20.257 E1.85199
G1 X28.056 Y19.835 E1.87490
G1 X28.382 Y19.473 E1.89781
G1 X28.776 Y19.187 E1.92071
G1 X29.221 Y18.988 E1.94362
G1 X29.697 Y18.887 E1.96653
G1 X30.184 Y18.887 E1.98944 F972.000
G1 X30.661 Y18.988 E2.01235
G1 X31.106 Y19.187 E2.03525
G1 X31.502 Y19.474 E2.05825
G1 X31.833 Y19.847 E2.08172
G1 X32.070 Y20.257 E2.10396
G1 X32.220 Y20.720 E2.12688
G1 X32.271 Y21.205 E2.14978
G1 X32.220 Y21.689 E2.17269
G1 X32.070 Y22.153 E2.19560
G1 X31.826 Y22.575 E2.21850
G1 X31.500 Y22.937 E2.24141
G1 X31.106 Y23.223 E2.26432
G1 X30.716 Y23.397 E2.28440
G1 X30.544 Y23.060 F6000.000
G1 X30.145 Y23.145 E2.29977 F972.000
G1 X29.737 Y23.145 E2.31514
G1 X29.338 Y23.060 E2.33051
G1 X28.965 Y22.894 E2.34587
G1 X28.635 Y22.655 E2.36124
G1 X28.362 Y22.352 E2.37661
G1 X28.158 Y21.998 E2.39197
G1 X28.032 Y21.610 E2.40734
G1 X27.990 Y21.205 E2.42271
G1 X28.032 Y20.799 E2.43807
G1 X28.158 Y20.411 E2.45344
G1 X28.362 Y20.058 E2.46881
G1 X28.635 Y19.755 E2.48418
G1 X28.965 Y19.515 E2.49954
G1 X29.338 Y19.349 E2.51491
G1 X29.737 Y19.264 E2.53028
G1 X30.145 Y19.264 E2.54564 F972.000
G1 X30.544 Y19.349 E2.56101
G1 X30.916 Y19.515 E2.57638
G1 X31.247 Y19.755 E2.59177
G1 X31.526 Y20.069 E2.60759
G1 X31.723 Y20.411 E2.62247
G1 X31.849 Y20.799 E2.63784
G1 X31.892 Y21.205 E2.65320
G1 X31.849 Y21.610 E2.66857
G1 X31.723 Y21.998 E2.68394
G1 X31.519 Y22.352 E2.69930
G1 X31.246 Y22.655 E2.71467
G1 X30.916 Y22.894 E2.73004
G1 X30.599 Y23.036 E2.74314
G1 X30.447 Y23.448 F6000.000
G1 X58.623 Y21.448 F6000.000
G1 X58.623 Y20.961 E2.76605 F972.000
G1 X58.725 Y20.485 E2.78896
G1 X58.923 Y20.040 E2.81187
G1 X59.209 Y19.645 E2.83477
G1 X59.571 Y19.319 E2.85768
G1 X59.993 Y19.076 E2.88059
G1 X60.456 Y18.925 E2.90350
G1 X60.941 Y18.874 E2.92641 F972.000
G1 X61.425 Y18.925 E2.94931
G1 X61.889 Y19.076 E2.97222
G1 X62.311 Y19.319 E2.99513
G1 X62.673 Y19.645 E3.01804
G1 X62.959 Y20.040 E3.04095
G1 X63.157 Y20.485 E3.06385
G1 X63.259 Y20.961 E3.08676
G1 X63.259 Y21.448 E3.10967
G1 X63.157 Y21.925 E3.13258
G1 X62.959 Y22.370 E3.15548
G1 X62.670 Y22.769 E3.17865
G1 X62.274 Y23.111 E3.20325
G1 X61.889 Y23.334 E3.22417
G1 X61.425 Y23.484 E3.24709
G1 X60.941 Y23.535 E3.26999
G1 X60.456 Y23.484 E3.29290
G1 X59.993 Y23.334 E3.31581
G1 X59.571 Y23.090 E3.33871
G1 X59.209 Y22.764 E3.36162
G1 X58.923 Y22.370 E3.38453
G1 X58.725 Y21.925 E3.40744
G1 X58.636 Y21.507 E3.42753
G1 X59.000 Y21.409 F6000.000
G1 X59.000 Y21.001 E3.44289 F972.000
G1 X59.085 Y20.602 E3.45826
G1 X59.251 Y20.229 E3.47363
G1 X59.491 Y19.899 E3.48899
G1 X59.794 Y19.626 E3.50436
G1 X60.147 Y19.422 E3.51973
G1 X60.535 Y19.296 E3.53510
G1 X60.941 Y19.254 E3.55046 F972.000
G1 X61.346 Y19.296 E3.56583
G1 X61.734 Y19.422 E3.58120
G1 X62.088 Y19.626 E3.59656
G1 X62.391 Y19.899 E3.61193
G1 X62.631 Y20.229 E3.62730
G1 X62.796 Y20.602 E3.64266
G1 X62.881 Y21.001 E3.65803
G1 X62.881 Y21.409 E3.67340
G1 X62.796 Y21.808 E3.68877
G1 X62.631 Y22.180 E3.70413
G1 X62.390 Y22.512 E3.71957
G1 X62.054 Y22.802 E3.73629
G1 X61.734 Y22.987 E3.75020
G1 X61.346 Y23.113 E3.76557
G1 X60.941 Y23.156 E3.78094
G1 X60.535 Y23.113 E3.79630
G1 X60.147 Y22.987 E3.81167
G1 X59.794 Y22.783 E3.82704
G1 X59.491 Y22.510 E3.84241
G1 X59.251 Y22.180 E3.85777
G1 X59.085 Y21.808 E3.87314
G1 X59.013 Y21.467 E3.88625
G1 X58.641 Y21.233 F6000.000
G1 X60.697 Y49.887 F6000.000
G1 X61.184 Y49.887 E3.90916 F972.000
G1 X61.661 Y49.988 E3.93207
G1 X62.106 Y50.187 E3.95497
G1 X62.500 Y50.473 E3.97788
G1 X62.826 Y50.835 E4.00079
G1 X63.070 Y51.257 E4.02369
G1 X63.220 Y51.720 E4.04661
G1 X63.271 Y52.205 E4.06951
G1 X63.220 Y52.689 E4.09242
G1 X63.070 Y53.153 E4.11533
G1 X62.826 Y53.575 E4.13823
G1 X62.500 Y53.937 E4.16114
G1 X62.106 Y54.223 E4.18405
G1 X61.661 Y54.421 E4.20696
G1 X61.184 Y54.522 E4.22987
G1 X60.697 Y54.522 E4.25277
G1 X60.221 Y54.421 E4.27569
G1 X59.776 Y54.223 E4.29859
G1 X59.382 Y53.937 E4.32150
G1 X59.056 Y53.575 E4.34441
G1 X58.812 Y53.153 E4.36731
G1 X58.661 Y52.689 E4.39023
G1 X58.610 Y52.205 E4.41313
G1 X58.661 Y51.720 E4.43604
G1 X58.812 Y51.257 E4.45895
G1 X59.056 Y50.835 E4.48185
G1 X59.382 Y50.473 E4.50476
G1 X59.776 Y50.187 E4.52767
G1 X60.221 Y49.988 E4.55057
G1 X60.639 Y49.900 E4.57066
G1 X60.737 Y50.264 F6000.000
G1 X61.145 Y50.264 E4.58603 F972.000
G1 X61.544 Y50.349 E4.60140
G1 X61.916 Y50.515 E4.61676
G1 X62.246 Y50.755 E4.63213
G1 X62.519 Y51.058 E4.64750
G1 X62.723 Y51.411 E4.66286
G1 X62.849 Y51.799 E4.67823
G1 X62.892 Y52.205 E4.69360
G1 X62.849 Y52.610 E4.70896
G1 X62.723 Y52.998 E4.72433
G1 X62.519 Y53.352 E4.73970
G1 X62.246 Y53.655 E4.75507
G1 X61.916 Y53.894 E4.77043
G1 X61.544 Y54.060 E4.78580
G1 X61.145 Y54.145 E4.80117
G1 X60.737 Y54.145 E4.81653
G1 X60.338 Y54.060 E4.83190
G1 X59.965 Y53.894 E4.84727
G1 X59.635 Y53.655 E4.86264
G1 X59.362 Y53.352 E4.87800
G1 X59.158 Y52.998 E4.89337
G1 X59.032 Y52.610 E4.90874
G1 X58.990 Y52.205 E4.92410
G1 X59.032 Y51.799 E4.93947
G1 X59.158 Y51.411 E4.95484
G1 X59.362 Y51.058 E4.97020
G1 X59.635 Y50.755 E4.98557
G1 X59.965 Y50.515 E5.00094
G1 X60.338 Y50.349 E5.01630
G1 X60.678 Y50.277 E5.02941
G1 X60.912 Y49.905 F6000.000
G1 E3.52941 F2100.00000
G92 E0
G1 X65.864 Y55.782 F6000.000
G1 E1.60000 F2100.00000
G1 X77.064 Y55.782 E2.12664 F1620.000
G1 X77.064 Y57.628 E2.21342
G1 X13.818 Y57.628 E5.18728
G1 X13.818 Y55.782 E5.27405
G1 X25.018 Y55.782 E5.80070
G1 X25.018 Y35.378 E6.76012
G1 X22.868 Y35.378 E6.86122
G1 X22.868 Y28.532 E7.18310
G1 X25.018 Y28.532 E7.28419
G1 X25.018 Y16.282 E7.86019
G1 X65.864 Y16.282 E9.78076
G1 X65.864 Y25.482 E10.21335
G1 X72.885 Y25.482 E10.54348
G1 X72.885 Y28.024 E10.66302
G1 X72.404 Y28.215 E10.68731
G1 X71.956 Y28.461 E10.71140
G1 X71.541 Y28.762 E10.73548
G1 X71.168 Y29.113 E10.75956
G1 X70.841 Y29.508 E10.78365
G1 X70.567 Y29.940 E10.80773
G1 X70.349 Y30.403 E10.83181
G1 X70.191 Y30.890 E10.85589
G1 X70.095 Y31.394 E10.87997
G1 X70.062 Y31.905 E10.90406
G1 X70.095 Y32.416 E10.92814
G1 X70.191 Y32.919 E10.95222
G1 X70.349 Y33.406 E10.97630
G1 X70.567 Y33.870 E11.00038
G1 X70.841 Y34.302 E11.02447
G1 X71.168 Y34.697 E11.04855
G1 X71.541 Y35.047 E11.07263
G1 X71.956 Y35.348 E11.09672
G1 X72.404 Y35.595 E11.12080
G1 X72.885 Y35.785 E11.14509
G1 X72.885 Y38.328 E11.26463
G1 X65.864 Y38.328 E11.59476
G1 X65.864 Y55.722 E12.41266
G1 X66.241 Y55.405 F6000.000
G1 X77.441 Y55.405 E12.83462 F810.000
G1 X77.441 Y58.005 E12.93258
G1 X13.441 Y58.005 E15.34375
G1 X13.441 Y55.405 E15.44171
G1 X24.641 Y55.405 E15.86367
G1 X24.641 Y35.755 E16.60397
G1 X22.491 Y35.755 E16.68497
G1 X22.491 Y28.155 E16.97129
G1 X24.641 Y28.155 E17.05229
G1 X24.641 Y15.905 E17.51380
G1 X66.241 Y15.905 E19.08105
G1 X66.241 Y25.105 E19.42766
G1 X73.262 Y25.105 E19.69217
G1 X73.262 Y28.059 E19.80346
G1 X73.262 Y28.318 E19.81321
G1 X72.997 Y28.385 E19.82350
G1 X72.565 Y28.557 E19.84100
G1 X72.158 Y28.780 E19.85851
G1 X71.782 Y29.054 E19.87602
G1 X71.443 Y29.372 E19.89353
G1 X71.147 Y29.730 E19.91104
G1 X70.898 Y30.122 E19.92854
G1 X70.700 Y30.543 E19.94605
G1 X70.557 Y30.984 E19.96356
G1 X70.470 Y31.441 E19.98106
G1 X70.440 Y31.905 E19.99857
G1 X70.470 Y32.369 E20.01608
G1 X70.557 Y32.825 E20.03359
G1 X70.700 Y33.267 E20.05109
G1 X70.898 Y33.687 E20.06860
G1 X71.147 Y34.080 E20.08611
G1 X71.443 Y34.438 E20.10361
G1 X71.782 Y34.756 E20.12112
G1 X72.158 Y35.029 E20.13863
G1 X72.565 Y35.253 E20.15614
