; G-Code generated by Simplify3D(R) Version 3.0.2
; Nov 18, 2015 at 12:51:41 PM
; Settings Summary
;   processName,Eddies ABS
;   applyToModels,axle,idler,pipe,strut
;   profileName,Eddie
;   profileVersion,2015-10-22 11:42:10
;   baseProfile,Default
;   printMaterial,ABS
;   printQuality,High
;   printExtruders,
;   extruderName,Extruder 1
;   extruderToolheadNumber,0
;   extruderDiameter,0.4
;   extruderAutoWidth,1
;   extruderWidth,0.48
;   extrusionMultiplier,1.05
;   extruderUseRetract,1
;   extruderRetractionDistance,3.25
;   extruderExtraRestartDistance,0
;   extruderRetractionZLift,0
;   extruderRetractionSpeed,1600
;   extruderUseCoasting,1
;   extruderCoastingDistance,0.4
;   extruderUseWipe,0
;   extruderWipeDistance,5
;   primaryExtruder,0
;   layerHeight,0.3
;   topSolidLayers,4
;   bottomSolidLayers,4
;   perimeterOutlines,3
;   printPerimetersInsideOut,1
;   startPointOption,2
;   startPointOriginX,0
;   startPointOriginY,0
;   startPointOriginZ,300
;   sequentialIslands,0
;   spiralVaseMode,0
;   firstLayerHeightPercentage,90
;   firstLayerWidthPercentage,105
;   firstLayerUnderspeed,0.75
;   useRaft,0
;   raftExtruder,0
;   raftLayers,3
;   raftOffset,3
;   raftSeparationDistance,0.14
;   raftInfill,85
;   disableRaftBaseLayers,0
;   useSkirt,1
;   skirtExtruder,0
;   skirtLayers,2
;   skirtOutlines,2
;   skirtOffset,4
;   usePrimePillar,0
;   primePillarExtruder,999
;   primePillarWidth,12
;   primePillarLocation,7
;   primePillarSpeedMultiplier,1
;   useOozeShield,0
;   oozeShieldExtruder,999
;   oozeShieldOffset,2
;   oozeShieldOutlines,1
;   oozeShieldSidewallShape,1
;   oozeShieldSidewallAngle,30
;   oozeShieldSpeedMultiplier,1
;   infillExtruder,0
;   internalInfillPattern,Triangular
;   externalInfillPattern,Rectilinear
;   infillPercentage,50
;   outlineOverlapPercentage,40
;   infillExtrusionWidthPercentage,100
;   minInfillLength,5
;   infillLayerInterval,1
;   infillAngles,0,60,-60
;   overlapInfillAngles,1
;   generateSupport,1
;   supportExtruder,0
;   supportInfillPercentage,50
;   supportExtraInflation,0
;   denseSupportLayers,0
;   denseSupportInfillPercentage,50
;   supportLayerInterval,1
;   supportHorizontalPartOffset,0.3
;   supportUpperSeparationLayers,1
;   supportLowerSeparationLayers,1
;   supportType,0
;   supportGridSpacing,1
;   maxOverhangAngle,30
;   supportAngles,0
;   temperatureName,Extruder 1 Temperature,Heated Bed
;   temperatureNumber,0,0
;   temperatureSetpointCount,2,1
;   temperatureSetpointLayers,1,3,1
;   temperatureSetpointTemperatures,260,255,105
;   temperatureStabilizeAtStartup,1,1
;   temperatureHeatedBed,0,1
;   temperatureRelayBetweenLayers,0,0
;   temperatureRelayBetweenLoops,0,0
;   fanLayers,1
;   fanSpeeds,255
;   blipFanToFullPower,0
;   adjustSpeedForCooling,1
;   minSpeedLayerTime,15
;   minCoolingSpeedSlowdown,20
;   increaseFanForCooling,1
;   minFanLayerTime,45
;   maxCoolingFanSpeed,100
;   increaseFanForBridging,1
;   bridgingFanSpeed,100
;   use5D,1
;   relativeEdistances,0
;   allowEaxisZeroing,1
;   independentExtruderAxes,0
;   includeM10123,0
;   stickySupport,1
;   applyToolheadOffsets,0
;   gcodeXoffset,0
;   gcodeYoffset,1
;   gcodeZoffset,0
;   overrideMachineDefinition,1
;   machineTypeOverride,0
;   strokeXoverride,190
;   strokeYoverride,200
;   strokeZoverride,100
;   originOffsetXoverride,0
;   originOffsetYoverride,0
;   originOffsetZoverride,0
;   homeXdirOverride,-1
;   homeYdirOverride,-1
;   homeZdirOverride,-1
;   flipXoverride,1
;   flipYoverride,-1
;   flipZoverride,1
;   toolheadOffsets,0,0|0,0|0,0|0,0|0,0|0,0
;   overrideFirmwareConfiguration,1
;   firmwareTypeOverride,RepRap (Marlin/Repetier/Sprinter)
;   GPXconfigOverride,r2
;   baudRateOverride,250000
;   overridePrinterModels,0
;   printerModelsOverride
;   startingGcode,G28 ; home all axes,M106 S255,
;   layerChangeGcode,
;   retractionGcode,
;   toolChangeGcode,
;   endingGcode,M104 S0 ; turn off extruder,M140 S0 ; turn off bed,M106 S0 ; fans off,G0 X0Y150 F1000 ; moves hotend home,M84 ; disable motors
;   createX3G,0
;   celebration,1
;   celebrationSong,Star Wars
;   createMB5G,0
;   postProcessing,
;   defaultSpeed,2800
;   outlineUnderspeed,0.5
;   solidInfillUnderspeed,0.8
;   supportUnderspeed,0.8
;   rapidXYspeed,4400
;   rapidZspeed,800
;   minBridgingArea,50
;   bridgingExtraInflation,0
;   bridgingExtrusionMultiplier,1
;   bridgingSpeedMultiplier,1
;   filamentDiameter,1.73
;   filamentPricePerKg,25
;   filamentDensity,1.25
;   useMinPrintHeight,0
;   minPrintHeight,0
;   useMaxPrintHeight,0
;   maxPrintHeight,0
;   useDiaphragm,0
;   diaphragmLayerInterval,20
;   robustSlicing,1
;   mergeAllIntoSolid,0
;   onlyRetractWhenCrossingOutline,1
;   retractBetweenLayers,1
;   useRetractionMinTravel,0
;   retractionMinTravel,3
;   retractWhileWiping,0
;   onlyWipeOutlines,1
;   avoidCrossingOutline,0
;   maxMovementDetourFactor,3
;   toolChangeRetractionDistance,12
;   toolChangeExtraRestartDistance,-0.5
;   toolChangeRetractionSpeed,600
;   allowThinWallGapFill,1
;   thinWallAllowedOverlapPercentage,10
;   horizontalSizeCompensation,0
G90
M82
M106 S650
M140 S105
M190 S105
M104 S260 T0
M109 S260 T0
G28 ; home all axes
M106 S255
G92 E0
G1 E-3.2500 F1600
G1 Z0.270 F800
; layer 1, Z = 0.27
T0
; tool H0.300 W0.504
; skirt
G1 X18.200 Y131.280 F4400
G1 E0.0000 F480
G92 E0
G1 X31.800 Y131.280 E0.9185 F2100
G1 X32.065 Y131.390 E0.9379
G1 X34.610 Y133.935 E1.1810
G1 X34.720 Y134.200 E1.2004
G1 X34.720 Y136.280 E1.3409
G1 X40.309 Y136.280 E1.7184
G1 X40.307 Y136.251 E1.7203
G1 X40.307 Y134.749 E1.8218
G1 X40.309 Y134.711 E1.8243
G1 X40.357 Y134.257 E1.8552
G1 X40.363 Y134.220 E1.8577
G1 X40.675 Y132.750 E1.9592
G1 X40.685 Y132.714 E1.9617
G1 X40.826 Y132.279 E1.9926
G1 X40.840 Y132.244 E1.9951
G1 X41.451 Y130.872 E2.0966
G1 X41.468 Y130.838 E2.0991
G1 X41.696 Y130.442 E2.1300
G1 X41.717 Y130.411 E2.1326
G1 X42.600 Y129.195 E2.2340
G1 X42.624 Y129.166 E2.2366
G1 X42.930 Y128.826 E2.2674
G1 X42.956 Y128.799 E2.2700
G1 X44.073 Y127.794 E2.3715
G1 X44.102 Y127.771 E2.3740
G1 X44.472 Y127.502 E2.4049
G1 X44.503 Y127.481 E2.4074
G1 X45.804 Y126.730 E2.5089
G1 X45.838 Y126.713 E2.5114
G1 X46.255 Y126.527 E2.5423
G1 X46.291 Y126.514 E2.5448
G1 X47.719 Y126.050 E2.6463
G1 X47.756 Y126.040 E2.6488
G1 X48.203 Y125.945 E2.6797
G1 X48.240 Y125.939 E2.6822
G1 X49.734 Y125.782 E2.7837
G1 X49.771 Y125.780 E2.7862
G1 X50.229 Y125.780 E2.8171
G1 X50.266 Y125.782 E2.8197
G1 X51.760 Y125.939 E2.9211
G1 X51.797 Y125.945 E2.9237
G1 X52.244 Y126.040 E2.9545
G1 X52.281 Y126.050 E2.9571
G1 X53.709 Y126.514 E3.0585
G1 X53.745 Y126.527 E3.0611
G1 X54.162 Y126.713 E3.0919
G1 X54.196 Y126.730 E3.0945
G1 X55.497 Y127.481 E3.1959
G1 X55.528 Y127.502 E3.1985
G1 X55.898 Y127.771 E3.2294
G1 X55.927 Y127.794 E3.2319
G1 X57.044 Y128.799 E3.3334
G1 X57.070 Y128.826 E3.3359
G1 X57.376 Y129.166 E3.3668
G1 X57.400 Y129.195 E3.3693
G1 X58.283 Y130.411 E3.4708
G1 X58.304 Y130.442 E3.4733
G1 X58.532 Y130.838 E3.5042
G1 X58.549 Y130.872 E3.5068
G1 X59.160 Y132.244 E3.6082
G1 X59.174 Y132.279 E3.6108
G1 X59.315 Y132.714 E3.6416
G1 X59.325 Y132.750 E3.6442
G1 X59.637 Y134.220 E3.7456
G1 X59.643 Y134.257 E3.7482
G1 X59.691 Y134.711 E3.7790
G1 X59.693 Y134.749 E3.7816
G1 X59.693 Y136.251 E3.8830
G1 X59.691 Y136.289 E3.8856
G1 X59.643 Y136.743 E3.9165
G1 X59.637 Y136.780 E3.9190
G1 X59.325 Y138.250 E4.0205
G1 X59.315 Y138.286 E4.0230
G1 X59.174 Y138.721 E4.0539
G1 X59.160 Y138.756 E4.0564
G1 X58.549 Y140.128 E4.1579
G1 X58.532 Y140.162 E4.1604
G1 X58.304 Y140.558 E4.1913
G1 X58.283 Y140.589 E4.1938
G1 X58.220 Y140.676 E4.2011
G1 X58.220 Y161.324 E5.5956
G1 X58.283 Y161.411 E5.6029
G1 X58.304 Y161.442 E5.6054
G1 X58.532 Y161.838 E5.6363
G1 X58.549 Y161.872 E5.6388
G1 X59.160 Y163.244 E5.7403
G1 X59.174 Y163.279 E5.7428
G1 X59.280 Y163.606 E5.7661
G1 X59.280 Y140.200 E7.3469
G1 X59.390 Y139.935 E7.3663
G1 X61.935 Y137.390 E7.6094
G1 X62.200 Y137.280 E7.6288
G1 X62.780 Y137.280 E7.6679
G1 X62.780 Y132.023 E8.0230
G1 X62.890 Y131.758 E8.0424
G1 X65.435 Y129.212 E8.2855
G1 X65.700 Y129.103 E8.3049
G1 X84.300 Y129.103 E9.5611
G1 X84.565 Y129.212 E9.5805
G1 X87.110 Y131.758 E9.8236
G1 X87.220 Y132.023 E9.8430
G1 X87.220 Y137.280 E10.1981
G1 X87.800 Y137.280 E10.2372
G1 X88.065 Y137.390 E10.2566
G1 X90.610 Y139.935 E10.4997
G1 X90.720 Y140.200 E10.5191
G1 X90.720 Y168.028 E12.3986
G1 X90.610 Y168.292 E12.4179
G1 X88.065 Y170.838 E12.6611
G1 X87.800 Y170.948 E12.6804
G1 X62.200 Y170.948 E14.4094
G1 X61.935 Y170.838 E14.4288
G1 X59.504 Y168.407 E14.6610
G1 X59.325 Y169.250 E14.7192
G1 X59.315 Y169.286 E14.7218
G1 X59.174 Y169.721 E14.7527
G1 X59.160 Y169.756 E14.7552
G1 X58.549 Y171.128 E14.8567
G1 X58.532 Y171.162 E14.8592
G1 X58.304 Y171.558 E14.8901
G1 X58.283 Y171.589 E14.8926
G1 X57.400 Y172.805 E14.9941
G1 X57.376 Y172.834 E14.9966
G1 X57.070 Y173.174 E15.0275
G1 X57.044 Y173.201 E15.0300
G1 X55.927 Y174.206 E15.1315
G1 X55.898 Y174.229 E15.1341
G1 X55.528 Y174.498 E15.1649
G1 X55.497 Y174.519 E15.1675
G1 X54.196 Y175.270 E15.2689
G1 X54.162 Y175.287 E15.2715
G1 X53.745 Y175.473 E15.3023
G1 X53.709 Y175.486 E15.3049
G1 X52.281 Y175.950 E15.4063
G1 X52.244 Y175.960 E15.4089
G1 X51.798 Y176.055 E15.4397
G1 X51.760 Y176.061 E15.4423
G1 X50.266 Y176.218 E15.5437
G1 X50.229 Y176.220 E15.5463
G1 X49.771 Y176.220 E15.5772
G1 X49.734 Y176.218 E15.5797
G1 X48.240 Y176.061 E15.6812
G1 X48.202 Y176.055 E15.6837
G1 X47.756 Y175.960 E15.7146
G1 X47.719 Y175.950 E15.7171
G1 X46.291 Y175.486 E15.8186
G1 X46.255 Y175.473 E15.8211
G1 X45.838 Y175.287 E15.8520
G1 X45.804 Y175.270 E15.8545
G1 X44.503 Y174.519 E15.9560
G1 X44.472 Y174.498 E15.9585
G1 X44.102 Y174.229 E15.9894
G1 X44.073 Y174.206 E15.9920
G1 X42.956 Y173.201 E16.0934
G1 X42.930 Y173.174 E16.0960
G1 X42.624 Y172.834 E16.1268
G1 X42.600 Y172.805 E16.1294
G1 X41.717 Y171.589 E16.2309
G1 X41.696 Y171.558 E16.2334
G1 X41.468 Y171.162 E16.2643
G1 X41.451 Y171.128 E16.2668
G1 X40.840 Y169.756 E16.3683
G1 X40.826 Y169.721 E16.3708
G1 X40.685 Y169.286 E16.4017
G1 X40.675 Y169.250 E16.4042
G1 X40.363 Y167.780 E16.5057
G1 X40.357 Y167.743 E16.5082
G1 X40.309 Y167.289 E16.5391
G1 X40.307 Y167.251 E16.5416
G1 X40.307 Y165.749 E16.6431
G1 X40.309 Y165.711 E16.6457
G1 X40.357 Y165.257 E16.6765
G1 X40.363 Y165.220 E16.6791
G1 X40.675 Y163.750 E16.7805
G1 X40.685 Y163.714 E16.7831
G1 X40.826 Y163.279 E16.8139
G1 X40.840 Y163.244 E16.8165
G1 X41.451 Y161.872 E16.9179
G1 X41.468 Y161.838 E16.9205
G1 X41.696 Y161.442 E16.9513
G1 X41.717 Y161.411 E16.9539
G1 X41.780 Y161.324 E16.9611
G1 X41.780 Y154.914 E17.3941
G1 X40.783 Y155.648 E17.4777
G1 X40.564 Y155.720 E17.4933
G1 X34.720 Y155.720 E17.8880
G1 X34.720 Y167.800 E18.7039
G1 X34.610 Y168.065 E18.7232
G1 X32.065 Y170.610 E18.9664
G1 X31.800 Y170.720 E18.9857
G1 X18.200 Y170.720 E19.9043
G1 X17.935 Y170.610 E19.9236
G1 X15.390 Y168.065 E20.1668
G1 X15.280 Y167.800 E20.1861
G1 X15.280 Y155.720 E21.0020
G1 X9.436 Y155.720 E21.3967
G1 X9.217 Y155.648 E21.4123
G1 X6.915 Y153.953 E21.6053
G1 X6.782 Y153.765 E21.6209
G1 X5.937 Y151.045 E21.8132
G1 X5.933 Y151.031 E21.8142
G1 X5.888 Y150.861 E21.8261
G1 X5.884 Y150.846 E21.8271
G1 X5.644 Y149.774 E21.9014
G1 X5.642 Y149.763 E21.9021
G1 X5.616 Y149.628 E21.9114
G1 X5.615 Y149.617 E21.9122
G1 X5.446 Y148.551 E21.9851
G1 X5.444 Y148.540 E21.9858
G1 X5.427 Y148.404 E21.9951
G1 X5.426 Y148.392 E21.9958
G1 X5.324 Y147.318 E22.0687
G1 X5.323 Y147.307 E22.0695
G1 X5.315 Y147.170 E22.0788
G1 X5.314 Y147.159 E22.0795
G1 X5.280 Y146.080 E22.1524
G1 X5.280 Y146.069 E22.1532
G1 X5.280 Y145.931 E22.1624
G1 X5.280 Y145.920 E22.1632
G1 X5.314 Y144.841 E22.2361
G1 X5.315 Y144.830 E22.2369
G1 X5.323 Y144.693 E22.2461
G1 X5.324 Y144.682 E22.2469
G1 X5.426 Y143.608 E22.3198
G1 X5.427 Y143.596 E22.3205
G1 X5.444 Y143.460 E22.3298
G1 X5.446 Y143.449 E22.3305
G1 X5.615 Y142.383 E22.4034
G1 X5.616 Y142.372 E22.4042
G1 X5.642 Y142.237 E22.4135
G1 X5.644 Y142.226 E22.4142
G1 X5.880 Y141.173 E22.4871
G1 X5.883 Y141.162 E22.4879
G1 X5.917 Y141.029 E22.4971
G1 X5.920 Y141.019 E22.4979
G1 X6.221 Y139.982 E22.5708
G1 X6.224 Y139.971 E22.5716
G1 X6.266 Y139.841 E22.5808
G1 X6.270 Y139.830 E22.5816
G1 X6.891 Y138.106 E22.7053
G1 X7.026 Y137.930 E22.7203
G1 X9.277 Y136.347 E22.9062
G1 X9.489 Y136.280 E22.9212
G1 X15.280 Y136.280 E23.3123
G1 X15.280 Y134.200 E23.4528
G1 X15.390 Y133.935 E23.4722
G1 X17.855 Y131.470 E23.7077
G1 X17.935 Y131.390 F2100
G1 X18.200 Y131.280 F2100
G92 E0
G1 E-3.2500 F1600
G1 X91.836 Y148.557 F4400
G1 E0.0000 F1600
G92 E0
G1 X91.844 Y148.530 E0.0019 F2100
G1 X91.950 Y148.204 E0.0251
G1 X91.960 Y148.178 E0.0270
G1 X92.319 Y147.310 E0.0904
G1 X92.331 Y147.285 E0.0923
G1 X92.486 Y146.979 E0.1154
G1 X92.500 Y146.955 E0.1173
G1 X92.991 Y146.154 E0.1807
G1 X93.006 Y146.131 E0.1826
G1 X93.208 Y145.854 E0.2058
G1 X93.225 Y145.831 E0.2077
G1 X93.835 Y145.117 E0.2711
G1 X93.854 Y145.097 E0.2730
G1 X94.097 Y144.854 E0.2962
G1 X94.117 Y144.835 E0.2981
G1 X94.831 Y144.225 E0.3615
G1 X94.854 Y144.208 E0.3634
G1 X95.131 Y144.006 E0.3865
G1 X95.154 Y143.991 E0.3885
G1 X95.955 Y143.500 E0.4519
G1 X95.979 Y143.486 E0.4538
G1 X96.285 Y143.331 E0.4769
G1 X96.310 Y143.319 E0.4788
G1 X97.178 Y142.960 E0.5422
G1 X97.204 Y142.950 E0.5441
G1 X97.530 Y142.844 E0.5673
G1 X97.557 Y142.836 E0.5692
G1 X98.470 Y142.617 E0.6326
G1 X98.498 Y142.612 E0.6345
G1 X98.836 Y142.558 E0.6576
G1 X98.864 Y142.555 E0.6596
G1 X99.800 Y142.481 E0.7230
G1 X99.829 Y142.480 E0.7249
G1 X100.171 Y142.480 E0.7480
G1 X100.200 Y142.481 E0.7499
G1 X101.136 Y142.555 E0.8133
G1 X101.164 Y142.558 E0.8152
G1 X101.502 Y142.612 E0.8384
G1 X101.530 Y142.617 E0.8403
G1 X102.443 Y142.836 E0.9037
G1 X102.470 Y142.844 E0.9056
G1 X102.796 Y142.950 E0.9288
G1 X102.822 Y142.960 E0.9307
G1 X103.690 Y143.319 E0.9941
G1 X103.715 Y143.331 E0.9960
G1 X104.021 Y143.486 E1.0191
G1 X104.045 Y143.500 E1.0210
G1 X104.846 Y143.991 E1.0844
G1 X104.869 Y144.006 E1.0864
G1 X105.146 Y144.208 E1.1095
G1 X105.169 Y144.225 E1.1114
G1 X105.883 Y144.835 E1.1748
G1 X105.903 Y144.854 E1.1767
G1 X106.146 Y145.097 E1.1999
G1 X106.165 Y145.117 E1.2018
G1 X106.775 Y145.831 E1.2652
G1 X106.792 Y145.854 E1.2671
G1 X106.994 Y146.131 E1.2903
G1 X107.009 Y146.154 E1.2922
G1 X107.500 Y146.955 E1.3556
G1 X107.514 Y146.979 E1.3575
G1 X107.669 Y147.285 E1.3806
G1 X107.681 Y147.310 E1.3825
G1 X108.040 Y148.178 E1.4459
G1 X108.050 Y148.204 E1.4478
G1 X108.156 Y148.530 E1.4710
G1 X108.164 Y148.557 E1.4729
G1 X108.383 Y149.470 E1.5363
G1 X108.388 Y149.498 E1.5382
G1 X108.442 Y149.836 E1.5614
G1 X108.445 Y149.864 E1.5633
G1 X108.519 Y150.800 E1.6267
G1 X108.520 Y150.829 E1.6286
G1 X108.520 Y151.171 E1.6517
G1 X108.519 Y151.200 E1.6536
G1 X108.445 Y152.136 E1.7171
G1 X108.442 Y152.164 E1.7190
G1 X108.388 Y152.502 E1.7421
G1 X108.383 Y152.530 E1.7440
G1 X108.164 Y153.443 E1.8074
G1 X108.156 Y153.470 E1.8093
G1 X108.050 Y153.796 E1.8325
G1 X108.040 Y153.822 E1.8344
G1 X107.681 Y154.690 E1.8978
G1 X107.669 Y154.715 E1.8997
G1 X107.514 Y155.021 E1.9228
G1 X107.500 Y155.045 E1.9247
G1 X107.013 Y155.840 E1.9877
G1 X106.998 Y155.863 E1.9896
G1 X106.798 Y156.138 E2.0125
G1 X106.781 Y156.160 E2.0144
G1 X106.169 Y156.879 E2.0782
G1 X106.149 Y156.900 E2.0801
G1 X105.905 Y157.144 E2.1034
G1 X105.884 Y157.164 E2.1054
G1 X105.169 Y157.775 E2.1689
G1 X105.146 Y157.792 E2.1708
G1 X104.869 Y157.994 E2.1940
G1 X104.846 Y158.009 E2.1959
G1 X104.045 Y158.500 E2.2593
G1 X104.021 Y158.514 E2.2612
G1 X103.715 Y158.669 E2.2843
G1 X103.690 Y158.681 E2.2862
G1 X102.822 Y159.040 E2.3496
G1 X102.796 Y159.050 E2.3515
G1 X102.470 Y159.156 E2.3747
G1 X102.443 Y159.164 E2.3766
G1 X101.530 Y159.383 E2.4400
G1 X101.502 Y159.388 E2.4419
G1 X101.164 Y159.442 E2.4651
G1 X101.136 Y159.445 E2.4670
G1 X100.200 Y159.519 E2.5304
G1 X100.171 Y159.520 E2.5323
G1 X99.829 Y159.520 E2.5554
G1 X99.800 Y159.519 E2.5573
G1 X98.872 Y159.446 E2.6203
G1 X98.844 Y159.443 E2.6222
G1 X98.509 Y159.390 E2.6451
G1 X98.481 Y159.384 E2.6470
G1 X97.562 Y159.165 E2.7108
G1 X97.535 Y159.157 E2.7127
G1 X97.206 Y159.051 E2.7360
G1 X97.179 Y159.041 E2.7380
